IMG/ICON/wheelchair-move-solid.svg

<svg width="448" height="512" viewBox="0 0 448 512" fill="none" xmlns="http://www.w3.org/2000/svg">
<path d="M320 48C320 35.2696 325.057 23.0606 334.059 14.0589C343.061 5.05713 355.27 0 368 0C380.73 0 392.939 5.05713 401.941 14.0589C410.943 23.0606 416 35.2696 416 48C416 60.7304 410.943 72.9394 401.941 81.9411C392.939 90.9429 380.73 96 368 96C355.27 96 343.061 90.9429 334.059 81.9411C325.057 72.9394 320 60.7304 320 48ZM204.5 121.3C199.1 118.8 192.8 119.4 188.1 123L147.2 153.7C133.1 164.3 113 161.4 102.4 147.3C91.8 133.2 94.7 113.1 108.8 102.5L149.7 71.8C173.4 54 205 50.8 231.8 63.4L322.2 105.9C351.3 119.6 359 157.5 337.4 181.4L299.1 224H396.5C426.8 224 449.5 251.7 443.6 281.4L415.4 422.3C411.9 439.6 395.1 450.9 377.7 447.4C360.3 443.9 349.1 427.1 352.6 409.7L377 288H306.7C315.3 307.6 320 329.2 320 352C320 440.4 248.4 512 160 512C71.6 512 0 440.4 0 352C0 263.6 71.6 192 160 192C171.1 192 182 193.1 192.4 195.3L246.6 141.1L204.5 121.3ZM160 448C172.607 448 185.09 445.517 196.738 440.692C208.385 435.868 218.968 428.797 227.882 419.882C236.797 410.968 243.868 400.385 248.692 388.738C253.517 377.09 256 364.607 256 352C256 339.393 253.517 326.91 248.692 315.262C243.868 303.615 236.797 293.032 227.882 284.118C218.968 275.203 208.385 268.132 196.738 263.308C185.09 258.483 172.607 256 160 256C147.393 256 134.91 258.483 123.262 263.308C111.615 268.132 101.032 275.203 92.1177 284.118C83.2033 293.032 76.132 303.615 71.3076 315.262C66.4831 326.91 64 339.393 64 352C64 364.607 66.4831 377.09 71.3076 388.738C76.132 400.385 83.2033 410.968 92.1177 419.882C101.032 428.797 111.615 435.868 123.262 440.692C134.91 445.517 147.393 448 160 448Z" fill="white"/>
</svg>

<svg xmlns="http://www.w3.org/2000/svg" viewBox="0 0 448 512"><!--!Font Awesome Free 6.6.0 by @fontawesome - https://fontawesome.com License - https://fontawesome.com/license/free Copyright 2024 Fonticons, Inc.--><path d="M320 48a48 48 0 1 1 96 0 48 48 0 1 1 -96 0zM204.5 121.3c-5.4-2.5-11.7-1.9-16.4 1.7l-40.9 30.7c-14.1 10.6-34.2 7.7-44.8-6.4s-7.7-34.2 6.4-44.8l40.9-30.7c23.7-17.8 55.3-21 82.1-8.4l90.4 42.5c29.1 13.7 36.8 51.6 15.2 75.5L299.1 224l97.4 0c30.3 0 53 27.7 47.1 57.4L415.4 422.3c-3.5 17.3-20.3 28.6-37.7 25.1s-28.6-20.3-25.1-37.7L377 288l-70.3 0c8.6 19.6 13.3 41.2 13.3 64c0 88.4-71.6 160-160 160S0 440.4 0 352s71.6-160 160-160c11.1 0 22 1.1 32.4 3.3l54.2-54.2-42.1-19.8zM160 448a96 96 0 1 0 0-192 96 96 0 1 0 0 192z"/></svg>
